brandFactory_export/3.Masa/Llave_3Masa.svg

<?xml version="1.0" encoding="UTF-8"?>
<svg width="24px" height="24px" viewBox="0 0 24 24" version="1.1" xmlns="http://www.w3.org/2000/svg" xmlns:xlink="http://www.w3.org/1999/xlink">
    <title>3.Masa/Llave_3Masa</title>
    <g id="Symbols" stroke="none" stroke-width="1" fill="none" fill-rule="evenodd">
        <g id="3.Masa/Llave_3Masa" fill="#5CB615" fill-rule="nonzero">
            <path d="M23.4655462,11.5411765 C23.5663866,11.6352941 23.6235294,11.7663866 23.6235294,11.9042017 C23.6235294,12.0420168 23.5697479,12.1764706 23.4689076,12.2739496 L21.1394958,14.5058824 C20.9411765,14.6941176 20.6319328,14.6907563 20.4403361,14.4957983 L18.9411765,12.989916 L18.0638655,14.405042 C17.9764706,14.5462185 17.8285714,14.6336134 17.6638655,14.6403361 C17.4823529,14.6605042 17.3411765,14.5764706 17.2436975,14.4453782 L16.1613445,13.0369748 L15.2,14.4252101 C15.1058824,14.5596639 14.9546218,14.6403361 14.789916,14.6403361 L9.21008403,14.6403361 C9.17983193,14.707563 9.15294118,14.7680672 9.13613445,14.805042 C8.4605042,16.1563025 6.99495798,16.8722689 4.89747899,16.8722689 C1.73781513,16.8722689 1.77635684e-15,15.1243697 1.77635684e-15,11.9512605 C1.77635684e-15,8.77815126 1.73781513,7.0302521 4.89747899,7.0302521 C7.42184874,7.0302521 8.61848739,8.13613445 9.18319328,9.17815126 L20.7495798,9.17815126 C20.8773109,9.17815126 20.9983193,9.22521008 21.092437,9.31260504 L23.4655462,11.5411765 L23.4655462,11.5411765 Z M4.29579832,12.794958 C3.69411765,12.794958 3.45882353,12.5596639 3.45882353,11.9546218 C3.45882353,11.3495798 3.6907563,11.1142857 4.29579832,11.1142857 C4.90084034,11.1142857 5.13277311,11.3495798 5.13277311,11.9546218 C5.13277311,12.5596639 4.89747899,12.794958 4.29579832,12.794958 Z M4.29579832,10.1092437 C3.14621849,10.1092437 2.45714286,10.8016807 2.45714286,11.9546218 C2.45714286,13.1109244 3.14621849,13.8 4.29579832,13.8 C5.44537815,13.8 6.13445378,13.1109244 6.13445378,11.9546218 C6.13445378,10.7983193 5.4487395,10.1092437 4.29579832,10.1092437 Z" id="Llave_3Masa"></path>
        </g>
    </g>
</svg>

<svg width="24" height="24" viewBox="0 0 24 24" xmlns="http://www.w3.org/2000/svg"><path d="M23.466 11.541c.1.094.158.225.158.363a.513.513 0 01-.155.37l-2.33 2.232a.497.497 0 01-.699-.01l-1.499-1.506-.877 1.415a.492.492 0 01-.4.235.447.447 0 01-.42-.195l-1.083-1.408-.961 1.388a.5.5 0 01-.41.215H9.21l-.074.165c-.675 1.351-2.141 2.067-4.239 2.067-3.16 0-4.897-1.748-4.897-4.92C0 8.777 1.738 7.03 4.897 7.03c2.525 0 3.721 1.106 4.286 2.148H20.75a.5.5 0 01.342.135l2.374 2.228zm-19.17 1.254c-.602 0-.837-.235-.837-.84s.232-.84.837-.84.837.235.837.84-.236.84-.837.84zm0-2.686c-1.15 0-1.839.693-1.839 1.846 0 1.156.69 1.845 1.839 1.845 1.15 0 1.838-.69 1.838-1.845 0-1.157-.685-1.846-1.838-1.846z" fill="#5CB615" fill-rule="nonzero"/></svg>
